X: 22387
T: Lad O'Beirne's
R: reel
M: 4/4
K: Gmajor
|:DGGG DGBG|BcBG AGEG|DGGG GABd|egdg edge|
dBBB GBdB|cEEE cAFE|DEGA BBeB|dBAc BGG2:|
|:Bddd d2ef|g2bg abge|dBBB GBdB|cEEE cAFA|
Bddd d2ef|g2bg abge|DEGA BBeB|dBAc BGG2:|

